X: 6542
T: Catharsis
R: reel
M: 4/4
K: Gminor
dG Gc G G BG|GA G G G ABc|dF Fc F F BF|FA F F G ABc|
dE Ec E E BE|EA E E G ABc|dc Bc BA GF|DG GF G||

